icons/female_and_male.svg

<svg width="48" height="48" viewBox="0 0 48 48" fill="none" xmlns="http://www.w3.org/2000/svg">
<path fill-rule="evenodd" clip-rule="evenodd" d="M33.5005 14C31.2913 14 29.5005 12.2091 29.5005 10C29.5005 7.79086 31.2913 6 33.5005 6C35.7096 6 37.5005 7.79086 37.5005 10C37.5005 12.2091 35.7096 14 33.5005 14ZM33.5005 12C32.3959 12 31.5005 11.1046 31.5005 10C31.5005 8.89543 32.3959 8 33.5005 8C34.6051 8 35.5005 8.89543 35.5005 10C35.5005 11.1046 34.6051 12 33.5005 12Z" fill="black"/>
<path fill-rule="evenodd" clip-rule="evenodd" d="M38.6303 16.8415C37.6389 16.2453 36.5453 16 35.4547 16H31.5463C30.4557 16 29.3621 16.2453 28.3707 16.8415C27.3815 17.4364 26.6715 18.2739 26.1791 19.1838C25.25 20.9006 25.0005 23.0478 25.0005 25.1435V25.2321C25.0005 25.2617 25.0018 25.2912 25.0044 25.3206L25.0122 25.4088L25.0131 25.4224C25.0136 25.4327 25.0143 25.4468 25.0149 25.4657C25.0161 25.5038 25.0172 25.5553 25.0178 25.6231C25.0191 25.7589 25.0186 25.9482 25.0159 26.2059C25.0147 26.3209 25.0132 26.4452 25.0115 26.5785L25.0115 26.5821C25.0065 26.9889 25.0005 27.4753 25.0005 28C25.0005 29.6569 26.3436 31 28.0005 31C28.1706 31 28.3377 30.9858 28.5005 30.9584V39.5C28.5005 40.8228 29.5309 41.9166 30.8513 41.9955C32.1717 42.0745 33.3251 41.1112 33.4827 39.7979L33.5005 39.6495L33.5183 39.7979C33.6759 41.1112 34.8293 42.0745 36.1497 41.9955C37.4701 41.9166 38.5005 40.8228 38.5005 39.5V30.9584C38.6633 30.9858 38.8304 31 39.0005 31C40.6573 31 42.0005 29.6569 42.0005 28C42.0005 27.4745 41.9945 26.9877 41.9895 26.5805L41.9895 26.5787C41.9878 26.4454 41.9863 26.3209 41.9851 26.2059C41.9824 25.9482 41.9819 25.7589 41.9832 25.6231C41.9838 25.5553 41.9848 25.5038 41.9861 25.4657C41.9867 25.4468 41.9873 25.4327 41.9879 25.4224L41.9887 25.4087L41.9966 25.3206C41.9992 25.2912 42.0005 25.2617 42.0005 25.2321V25.1435C42.0005 23.0478 41.751 20.9006 40.8219 19.1838C40.3295 18.2739 39.6195 17.4364 38.6303 16.8415ZM28.0005 29C28.1843 29 28.3537 28.9513 28.4998 28.8668L28.5005 23H30.5005V39.5C30.5005 39.7645 30.7066 39.9833 30.9706 39.9991C31.2347 40.0149 31.4654 39.8222 31.4969 39.5596L32.5076 31.1372C32.5679 30.6346 32.9943 30.2563 33.5005 30.2563C34.0067 30.2563 34.4331 30.6346 34.4934 31.1372L35.504 39.5596C35.5356 39.8222 35.7662 40.0149 36.0303 39.9991C36.2944 39.9833 36.5005 39.7645 36.5005 39.5L36.5005 23H38.5005L38.5012 28.8668C38.6473 28.9513 38.8167 29 39.0005 29C39.5528 29 40.0005 28.5523 40.0005 28C40.0005 27.4876 39.9946 27.011 39.9896 26.6025C39.988 26.4699 39.9864 26.3439 39.9852 26.2267C39.98 25.7244 39.9815 25.4014 39.9966 25.232L40.0005 25.1878V25.1435C40.0005 23.1478 39.7514 21.4078 39.063 20.1357C38.7094 19.4823 38.2302 18.9347 37.5995 18.5554C36.9681 18.1757 36.2435 18 35.4547 18H31.5463C30.7575 18 30.0329 18.1757 29.4015 18.5554C28.7708 18.9347 28.2916 19.4823 27.938 20.1357C27.2496 21.4078 27.0005 23.1478 27.0005 25.1435V25.1878L27.0044 25.232C27.0195 25.4014 27.021 25.7244 27.0158 26.2267C27.0146 26.3423 27.013 26.4674 27.0114 26.5982L27.0114 26.6031C27.0063 27.0116 27.0005 27.4875 27.0005 28C27.0005 28.5523 27.4482 29 28.0005 29Z" fill="black"/>
<path fill-rule="evenodd" clip-rule="evenodd" d="M10.0006 10C10.0006 12.2091 11.7915 14 14.0006 14C16.2098 14 18.0006 12.2091 18.0006 10C18.0006 7.79086 16.2098 6 14.0006 6C11.7915 6 10.0006 7.79086 10.0006 10ZM12.0006 10C12.0006 11.1046 12.8961 12 14.0006 12C15.1052 12 16.0006 11.1046 16.0006 10C16.0006 8.89543 15.1052 8 14.0006 8C12.8961 8 12.0006 8.89543 12.0006 10Z" fill="black"/>
<path fill-rule="evenodd" clip-rule="evenodd" d="M10.5543 16.4437C11.3409 16.0476 12.0916 16.0001 12.5219 16L12.9845 16.0002L12.9916 16.0001L16.4796 16.0002C16.9094 16.0003 17.6598 16.0478 18.4464 16.4439C19.7772 17.1139 20.5367 18.2111 20.9878 19.1805C21.4192 20.1075 21.6679 21.1339 21.8525 21.9882C22.0278 22.7992 22.0321 22.8204 22.1319 23.333C22.2273 23.8232 22.4139 24.7823 22.9414 27.4096C23.2676 29.034 22.2152 30.6153 20.5907 30.9415C20.3307 30.9937 20.0719 31.0105 19.8192 30.9954L20.3584 34.0956C20.5077 34.9544 20.0745 35.8919 19.1484 36.2222C18.241 36.5458 16.5961 37 14.5006 37C12.4051 37 10.7603 36.5458 9.85284 36.2222C8.92678 35.8919 8.49355 34.9544 8.6429 34.0956L9.18211 30.9952C8.92924 31.0104 8.67022 30.9935 8.41003 30.9413C6.7856 30.6151 5.73315 29.0338 6.05933 27.4094C6.58699 24.7816 6.77367 23.8223 6.86905 23.3322C6.9688 22.8196 6.97295 22.799 7.14825 21.988C7.33293 21.1337 7.58162 20.1073 8.01301 19.1803C8.46412 18.211 9.2236 17.1138 10.5543 16.4437ZM13.0022 18.0002L12.5222 18C12.2374 18.0001 11.8431 18.034 11.4538 18.23C10.6608 18.6293 10.1635 19.2996 9.82627 20.0242C9.49605 20.7338 9.2845 21.5715 9.1031 22.4106C8.93074 23.2079 8.92837 23.2201 8.8345 23.7025L8.83222 23.7142C8.73603 24.2085 8.54865 25.1713 8.0202 27.8031C7.91147 28.3446 8.26228 28.8717 8.80376 28.9804C9.05507 29.0309 9.30379 28.9828 9.5095 28.861L10.6956 22.3372L12.6634 22.695L12.0378 26.1356L12.0619 26.109L10.6246 34.3734C11.3977 34.6394 12.7673 35 14.5006 35C16.234 35 17.6035 34.6394 18.3766 34.3734L16.94 26.1129L16.9641 26.1395L16.3379 22.695L18.3056 22.3372L19.4918 28.8615C19.6975 28.983 19.9459 29.031 20.197 28.9806C20.7385 28.8719 21.0893 28.3448 20.9806 27.8033C20.4521 25.1714 20.2648 24.2087 20.1686 23.7144L20.1663 23.7026C20.0724 23.2203 20.07 23.2081 19.8977 22.4108C19.7163 21.5716 19.5047 20.7339 19.1745 20.0243C18.8373 19.2997 18.34 18.6295 17.547 18.2302C17.1577 18.0342 16.7636 18.0003 16.4789 18.0002L13.0097 18.0001L13.0022 18.0002Z" fill="black"/>
<path d="M17.7152 41.9131C18.4531 41.8064 19.0006 41.1741 19.0006 40.4285V38C17.695 38.1798 16.4933 38.2909 15.3185 38.3349L16.062 40.8533C16.2731 41.5683 16.9773 42.0197 17.7152 41.9131Z" fill="black"/>
<path d="M13.7354 38.3537L12.9299 40.8836C12.7056 41.5882 12.0011 42.0243 11.2704 41.9107C10.5396 41.7972 10.0006 41.168 10.0006 40.4285V38.0921C11.3112 38.2491 12.5276 38.3369 13.7354 38.3537Z" fill="black"/>
</svg>

<svg
  xmlns="http://www.w3.org/2000/svg"
  width="24"
  height="24"
  viewBox="0 0 24 24"
  fill="none"
  stroke="currentColor"
  stroke-width="2"
  stroke-linecap="round"
  stroke-linejoin="round"
>
  <path
    fill-rule="evenodd"
    d="M33.5 14a4 4 0 1 1 0-8 4 4 0 0 1 0 8m0-2a2 2 0 1 1 0-4 2 2 0 0 1 0 4"
    clip-rule="evenodd"
  />
  <path
    fill-rule="evenodd"
    d="M38.63 16.842c-.991-.597-2.085-.842-3.175-.842h-3.909c-1.09 0-2.184.245-3.175.841-.99.595-1.7 1.433-2.192 2.343-.929 1.717-1.178 3.864-1.178 5.96v.088q0 .045.003.089l.008.088.001.013.002.044.003.157c.001.136 0 .325-.002.583l-.004.372v.004C25.006 26.99 25 27.475 25 28a3 3 0 0 0 3.5 2.958V39.5a2.5 2.5 0 0 0 4.983.298l.018-.148.017.148a2.5 2.5 0 0 0 4.983-.298v-8.542q.244.042.5.042a3 3 0 0 0 3-3c0-.526-.006-1.012-.011-1.42v-.001l-.005-.373a31 31 0 0 1 .001-.74l.002-.044v-.013l.009-.088q.004-.045.004-.089v-.088c0-2.096-.25-4.243-1.18-5.96-.491-.91-1.201-1.748-2.19-2.343M28 29a1 1 0 0 0 .5-.133V23h2v16.5a.5.5 0 0 0 .997.06l1.01-8.423a1 1 0 0 1 1.986 0l1.011 8.423a.5.5 0 0 0 .997-.06V23h2v5.867a1 1 0 0 0 1.5-.867c0-.512-.006-.989-.011-1.398l-.005-.375c-.005-.503-.004-.826.012-.995l.004-.044v-.044c0-1.996-.25-3.736-.938-5.008-.354-.654-.833-1.201-1.464-1.58-.63-.38-1.355-.556-2.144-.556h-3.909c-.788 0-1.513.176-2.145.555-.63.38-1.11.927-1.463 1.58-.688 1.273-.937 3.013-.937 5.008v.045l.003.044c.015.17.017.492.012.995l-.005.371v.005c-.005.409-.01.884-.01 1.397a1 1 0 0 0 1 1"
    clip-rule="evenodd"
  />
  <path
    fill-rule="evenodd"
    d="M10 10a4 4 0 1 0 8 0 4 4 0 0 0-8 0m2 0a2 2 0 1 0 4 0 2 2 0 0 0-4 0"
    clip-rule="evenodd"
  />
  <path
    fill-rule="evenodd"
    d="M10.554 16.444A4.35 4.35 0 0 1 12.522 16h3.958c.43 0 1.18.048 1.966.444 1.331.67 2.09 1.767 2.542 2.736.431.928.68 1.954.864 2.808.176.811.18.832.28 1.345.095.49.282 1.45.81 4.077a3 3 0 0 1-3.123 3.585l.54 3.1c.149.86-.285 1.797-1.21 2.127-.908.324-2.553.778-4.648.778-2.096 0-3.74-.454-4.648-.778-.926-.33-1.36-1.268-1.21-2.126l.54-3.1a3.004 3.004 0 0 1-3.124-3.587c.528-2.627.715-3.587.81-4.077.1-.512.104-.533.28-1.344.184-.854.433-1.88.864-2.808.451-.969 1.21-2.066 2.541-2.736M13.002 18h-.48c-.285 0-.679.034-1.068.23-.793.4-1.29 1.07-1.628 1.794-.33.71-.542 1.547-.723 2.387-.172.797-.175.81-.268 1.291l-.003.012c-.096.495-.283 1.457-.812 4.09a1 1 0 0 0 1.49 1.057l1.186-6.524 1.967.358-.625 3.44.024-.026-1.437 8.264A12 12 0 0 0 14.5 35c1.733 0 3.103-.36 3.876-.627l-1.437-8.26.024.027-.626-3.445 1.968-.358 1.186 6.525a1 1 0 0 0 1.489-1.058c-.529-2.633-.716-3.595-.812-4.09l-.003-.011a44 44 0 0 0-.268-1.292c-.182-.84-.393-1.677-.724-2.387-.337-.724-.834-1.395-1.627-1.794a2.36 2.36 0 0 0-1.068-.23h-3.477"
    clip-rule="evenodd"
  />
  <path d="M17.715 41.913a1.5 1.5 0 0 0 1.286-1.484V38a37 37 0 0 1-3.683.335l.744 2.518a1.5 1.5 0 0 0 1.653 1.06" />
  <path d="m13.735 38.354-.805 2.53a1.5 1.5 0 0 1-2.93-.456v-2.336c1.311.157 2.528.245 3.735.262" />
</svg>
